!!!!SEGMENT: pl-kc--40102-iii-1-saf--002-003_zielenski-mikolaj--communiones-totius-anni-in-festo-s-ioannis-apostoli-et-evangelistae-exiit-sermo-inter-fratres.krn
!!!cenid: 16xx:1534
!!!COM: Zieleński, Mikołaj
!!!COM-rismID: pe30013481
!!!CDT: <1611->1611
!!!CNT: Polish
!!!GTL: Communiones totius anni
!!!OTL: In festo S. Ioannis Apostoli et Evangelistae/Exiit sermo inter fratres
!!!OMV: 003
!!!PDT: 1611
!!!AGN:
!!!YEC: Copyright 2022 Narodowy Instytut Fryderyka Chopina (https://polishscores.org)
!!!YEM: License CC-BY-4.0 (https://creativecommons.org/licenses/by/4.0)
!!!SMS-siglum: PL-Kc
!!!SMS-shelfmark: 40102 III/1 Saf.
!!!SMS-shelfwork: 002-003 G
!!!SMS-variant:
!!!SMS-altvar:
!!!NIFC-rismSourceID: 990069887
!!!NIFC-rismChildID: 990069887
!!!NIFC-islandoraID: none
!!!URL-pdf-islandora:
!!!URL-scan: https://cyfrowe.mnk.pl/dlibra/publication/24235/edition/23926/content?ref=desc @EN{Scan on The National Museum in Krakow Website} @PL{Skany w portalu Biblioteka Cyfrowa Muzeum Narodowego w Krakowie}
!!!IIIF:
!!!ONB-nifc: UWAGA: str. 47. Uwaga: W xml metrum 2/1 do źródłowego C| i odpowiednio 3/1 do 3/2
!!!AIN: 2 organ
!!!key:
**kern	**kern	**kern	**kern
*part2	*part2	*part1	*part1
*staff2	*staff2	*staff1	*staff1
*Iorgan	*Iempty	*Iorgan	*Iempty
*I"Organo	*	*I"Organo	*
*I'org	*	*	*
*ICklav	*	*ICklav	*
*clefF3	*clefC3	*clefC2	*clefG2
*k[]	*k[]	*k[]	*k[]
*d:	*d:	*d:	*d:
*M2/1	*M2/1	*M2/1	*M2/1
=1	=1	=1	=1
!	!	!	!LO:TX:t=P:problem=caudy dolne-różnie
0r	2.d\	1r	0r
.	4d\	.	.
.	2d\	2.a\	.
.	1f\	.	.
.	.	4a\	.
=2	=2	=2	=2
0r	.	2a\	0r
.	2e\	1cc	.
.	2.g\	.	.
.	.	2b\	.
.	8f\	.	.
.	8e\	.	.
=3	=3	=3	=3
0r	4d\	2.dd\	0r
.	4e\	.	.
.	4f\	.	.
.	4g\	8cc\	.
.	.	8b\	.
.	4a\	4cc\	.
.	4d\	4b\	.
.	[2g\	4b\	.
.	.	8a\	.
.	.	8g\	.
=4	=4	=4	=4
!	!LO:N:xstem:cue	!	!
0r	4g\]	2.a\	2.dd\
!	!LO:TX:t=P:global:problem=zamiast # jest x	!	!
.	8f#X\	.	.
.	8e\	.	.
.	2f#\	.	.
.	.	4a\	4dd\
.	2g\	4b\	2dd\
.	.	8a\	.
.	.	8g\	.
.	2d\	4a\	[2ff\
.	.	4b\	.
=5	=5	=5	=5
2.A\	2.a\	4cc\	2ff\]
.	.	4dd\	.
.	.	2.cc\	2.ee\
4A\	8g\L	.	.
.	8f\J	.	.
2A\	1e	.	.
.	.	8b\	4dd\
.	.	8a\	.
[2c\	.	4g\	4ee\
.	.	4a\	4ff\
=6	=6	=6	=6
2c\]	2.d\	4b\	2.gg\
.	.	4cc\	.
2B\	.	2dd\	.
.	4d\	.	8ff\
.	.	.	8ee\
2c\	2e\	2g\	4dd\
.	.	.	4ee\
!	!	!LO:TX:t=P:problem=kreska taktowa między nutą a kropką	!
2A\	2c/	[2a\	[2ff\
=7	=7	=7	=7
*lig	*	*	*
1B-X	2.d\	4a\]	2ff\]
.	.	8g\	.
.	.	8f\	.
.	.	2g\	4ee\
.	4d\	.	4dd\
!	!	!	!LO:TX:t=P:global:problem=zamiast # jest x
1A	4e\	1a	4cc#X\
.	4f\	.	2dd\
.	2e\	.	.
.	.	.	4cc#\
*Xlig	*	*	*
=8	=8	=8	=8
1D	2d\	1.f	1dd
.	2A/	.	.
1r	2d\	.	1a
!	!LO:TX:t=P:problem=kreska taktowa między nutą a kropką	!	!
.	[2c#X/	2e/	.
=9	=9	=9	=9
!	!LO:N:xstem:cue	!	!
0r	4c#/]	2a\	2r
.	4c#X/	.	.
.	1d	2.f\	2a/
.	.	.	2dd\
.	.	4f\	.
.	[2A/	4e/	[2cc#X\
.	.	4d/	.
=10	=10	=10	=10
1r	4A/]	2e/	4cc#\]
.	4A/	.	4cc#X\
.	2f\	2.a\	2dd\
*	*	*	*custos:a
2r	2d\	.	1b
!	!	!LO:TX:t=P:global:problem=zamiast # jest x	!
.	.	8g#X\	.
.	.	8f\	.
*custos:A	*custos:e	*custos:a	*
2E/	[2e\	2g#\	.
!!LO:LB:g=original
=11	=11	=11	=11
2A\	2e\]	2a\	2a/
!LO:TX:t=P:global:problem=zamiast # jest x	!	!	!
2.G#X\	2e\	2.b\	2r
.	1e	.	2dd\
4G#\	.	4b\	.
2A\	.	2cc\	[2aa\
=12	=12	=12	=12
1E	2.e\	1b	2aa\]
.	.	.	4.gg#X\
.	4d\	.	.
.	.	.	8gg#\
2F/	4c/	2a\	2aa\
.	4A/	.	.
2D/	[2d\	[2a\	[2ff\
=13	=13	=13	=13
2.B\	2d\]	2a\]	2ff\]
.	2d\	2g\	4ee\
4B\	.	.	4dd\
2A\	2a\	2cc\	4ee\
.	.	.	4cc\
2F/	2a\	2cc\	4ff\
.	.	.	[4ff\
=14	=14	=14	=14
2B\	1g	1cc	4ff\]
.	.	.	8ee\
.	.	.	8dd\
2C/	.	.	2ee\
!	!	!	!LO:TX:t=P:problem=kreska taktowa między nutą a kropką
1F	2r	1a	[1ff
.	2c/	.	.
=15	=15	=15	=15
!	!	!	!LO:N:xstem:cue
0r	2f\	2r	2ff\]
.	2.e\	2g\	2r
.	.	2cc\	2r
.	4e\	.	.
.	[2d\	2b\	2dd\
=16	=16	=16	=16
1r	4d\]	2.a\	2ff\
.	8c#X/	.	.
.	8B/	.	.
.	2c#/	.	2.ee\
.	.	4g\	.
2r	1d	4f\	.
.	.	4e/	4ee\
2D/	.	2f\	2dd\
=17	=17	=17	=17
!	!LO:TX:t=P:problem=w źródle zła pauza	!LO:TX:t=P:problem=za mało miar w takcie	!
2A\	1r	2.e/	1ee
1G	.	.	.
.	.	8e/	.
.	.	8e/	.
.	2B/	4d/	1r
.	.	4ryy	.
2E/	[2d\	[2e/	.
=18	=18	=18	=18
1F	4d\]	4e/]	2r
.	4c/	8d/	.
.	.	8c/	.
.	2A/	2d/	2dd\
[1E	2B/	2.e/	2gg\
!	!	!	!LO:TX:t=P:problem=kreska taktowa między nutą a kropką
.	2c/	.	[2ee\
.	.	4f#X\	.
=19	=19	=19	=19
!	!	!	!LO:N:xstem:cue
0E]	2B/	2g#X\	4ee\]
.	.	.	4ee\
.	2.e\	2.a\	2cc\
.	.	.	1b
.	4B/	8g#X\	.
.	.	8f\	.
.	2e\	2g#\	.
=20	=20	=20	=20
0r	2A/	2a\	2r
.	2a\	2cc#X\	2ee\
.	2f\	2dd\	2aa\
.	4e\	2ee\	2gg\
.	4d\	.	.
=21	=21	=21	=21
1r	4c/	2ee\	2gg\
.	4A/	.	.
.	2d\	2.dd\	2ff\
2r	2.a\	.	1ee
.	.	8cc#X\	.
.	.	8b\	.
2A\	.	2cc#\	.
.	4g\	.	.
=22	=22	=22	=22
2d\	4f\	2dd\	2dd\
.	4d\	.	.
1c	4e\	2.g\	2r
.	4d\	.	.
.	4e\	.	1r
.	4c/	4e/	.
!	!	!LO:TX:t=P:problem=w żródle jest ćwierćnuta z kropką	!
!	!	!LO:TX:t=P:problem=kreska taktowa między nutą a kropką	!
2A\	[2f\	[2a\	.
=23	=23	=23	=23
!	!	!LO:N:xstem:cue	!
1B-X	2f\]	4a\]	1r
.	.	8g\	.
.	.	8f\	.
.	4e\	2g\	.
.	4d\	.	.
[1A	2e\	2a\	2r
.	2c#X/	2e/	2aa\
=24	=24	=24	=24
2A\]	4d\	2.a\	2.ff\
.	4e\	.	.
2d\	4f\	.	.
.	4d\	4a\	4ff\
2.B-X\	2g\	2b-X\	1dd
.	[2d\	2f\	.
4B-\	.	.	.
=25	=25	=25	=25
1A	2d\]	1.g	2r
.	2B/	.	2gg\
2r	4c/	.	2.ee\
.	4d\	.	.
2c\	4e\	2g\	.
.	4c/	.	4ee\
=26	=26	=26	=26
2.A\	2f\	2a\	1cc
.	1c	2e/	.
4A\	.	.	.
1F	.	2a\	2r
.	[2A/	4d/	2aa\
.	.	4e/	.
=27	=27	=27	=27
1D	2A/]	4f\	2.ff\
.	.	4g\	.
.	2d\	2.a\	.
.	.	.	4ff\
[1A	2c#X/	.	2ee\
.	.	4g\	.
.	2d\	2f\	4a/
.	.	.	4b/
=28	=28	=28	=28
2A\]	2e\	2e/	4cc#X\
.	.	.	4a/
2A\	2f\	2a\	2.dd\
2A\	1e	1a	.
.	.	.	8cc#X\
.	.	.	8b\
2D/	.	.	2cc#\
=29	=29	=29	=29
1D	1d	1f#X	1dd
=30	=30	=30	=30
*M3/1	*M3/1	*M3/1	*M3/1
1A	1c#X	1e	1%3r
2F#X/	2d\	2a\	.
1G	1B	1d	.
2E/	2c#/	2g\	.
=31	=31	=31	=31
*	*	*	*custos:aa
1F	2.A/	2.c/	0r
.	4B/	4d/	.
*custos:D	*custos:A	*custos:d	*
2C/	2c/	2e\	.
!!LO:LB:g=original
4D/	1A	1d	.
4E/	.	.	.
4F/	.	.	1r
4D/	.	.	.
2E/	2G#X/	2B/	.
=32	=32	=32	=32
2AA/	2A/	2A/	2r
2A\	2c#X/	2a\	2aa\
2d\	2d\	2a\	2ff#X\
1B	1d	1b	1gg
2c\	2e\	2g\	2ee\
=33	=33	=33	=33
1A	2.e\	1a	1cc
.	4e\	.	.
2F/	2a\	2cc\	2ff\
2c\	1g	1cc	2ff\
1C	.	.	4ee\
.	.	.	4dd\
.	2g\	2cc\	2ee\
=34	=34	=34	=34
*M2/1	*M2/1	*M2/1	*M2/1
1F	2c/	1a	2ff\
.	4A/	.	4cc\
.	4B/	.	4dd\
2r	4c/	[1g	4ee\
.	4d\	.	4ff\
[2c\	[2e\	.	4gg\
.	.	.	4g/
=35	=35	=35	=35
2c\]	2e\]	2g\]	4cc\
.	.	.	4dd\
!	!	!	!LO:TX:t=P:problem=kreska taktowa między nutą a kropką
2A\	2c/	2cc\	2.ee\
2D/	2.f\	2.a\	.
!	!	!	!LO:N:xstem:cue
.	.	.	8dd#X\
.	.	.	8cc\
2D/	.	.	2dd#\
.	4f\	4b\	.
=36	=36	=36	=36
1A	4e\	4cc\	0ee
.	4d\	4b\	.
.	4c/	4a\	.
.	4B/	4g\	.
2r	2A/	4a\	.
.	.	4e\	.
[2A\	[2c\	4a\	.
.	.	4b\	.
=37	=37	=37	=37
2A\]	2c\]	2cc\	1r
!	!LO:TX:t=P:problem=kreska taktowa między nutą a kropką	!LO:TX:t=P:problem=kreska taktowa między nutą a kropką	!
2F/	2.f\	2.a\	.
2C/	.	.	1r
!	!LO:N:xstem:cue	!LO:N:xstem:cue	!
.	8e\	8g\	.
.	8d\	8f\	.
2C/	4e\	4g\	.
.	4c/	4a\	.
=38	=38	=38	=38
1G	4d\	2b\	2r
.	4c/	.	.
.	4B/	4dd\	1gg
.	4A/	4cc\	.
1r	2G/	4b\	.
.	.	4a\	.
.	2c/	2g\	2ee\
=39	=39	=39	=39
1r	2A/	2cc\	1ff
.	2B/	4b\	.
.	.	4a\	.
2r	2c/	4g\	1ee
.	.	4a\	.
[2G\	2d\	[2b\	.
=40	=40	=40	=40
2G\]	2.e\	4b\]	0r
.	.	8a\	.
.	.	8b\	.
2E/	.	2.cc\	.
.	4e\	.	.
[1A	2c#X/	.	.
.	.	4b\	.
.	[2d\	4a\	.
.	.	4g\	.
=41	=41	=41	=41
2A\]	4d\]	2a\	1r
.	8c#X/	.	.
.	8B/	.	.
2A\	2c#/	2e/	.
2D/	1d	2f#X\	2r
[2G\	.	4g\	[2dd\
.	.	4a\	.
=42	=42	=42	=42
2G\]	2d\	4b-X\	2dd\]
.	.	4g\	.
2F#X/	4d\	2a\	2a/
.	4c\	.	.
[1G	4B-X/	2.g\	2.b-X/
.	4A/	.	.
.	2G/	.	.
.	.	4a\	4a/
=43	=43	=43	=43
1G]	1.d	2b-X\	4g/
.	.	.	4a/
.	.	2g\	4b-X/
.	.	.	4g/
1G	.	1b-X	1dd
.	[2g\	.	.
=44	=44	=44	=44
0D	2g\]	0a	0dd
.	4f#X\	.	.
.	4e\	.	.
.	1f#Xl	.	.
==	==	==	==
*-	*-	*-	*-
!!!system-decoration: s1,s2,s3,s4
!!!RDF**kern: l = terminal long
!!!ENC: Anastazja Marusiak
!!!END: 2021-12-17
!!!ENC: Leszek Kubiak
!!!END: 2021-12-21
